web/ui/src/assets/svgs/index/git-btn.svg

<svg height="56" viewBox="0 0 56 56" width="56" xmlns="http://www.w3.org/2000/svg"><g fill="none" fill-rule="evenodd"><circle cx="28" cy="28" fill="#ffe8e5" r="28"/><g fill-rule="nonzero"><path d="m6 6h44v44h-44z" fill="#000" opacity="0"/><path d="m47.2434036 26.2166113-17.4650313-17.46332391c-1.0080829-1.00438319-2.6385902-1.00438319-3.6466732 0l-3.6183398 3.62499811 4.6000083 4.5999974c1.10721-.3751009 2.3313794-.0873392 3.1555208.7417586.8241415.8290978 1.1045558 2.0549684.7228195 3.159906l4.4300079 4.4333309c1.3502408-.4694844 2.8456931.0573416 3.6035237 1.269469.7578306 1.2121273.5765385 2.787261-.4368513 3.7955283-.5743159.5752396-1.3538109.8984837-2.1666706.8984837s-1.5923546-.3232441-2.1666706-.8984837c-.8711204-.8735967-1.1361649-2.1830707-.6733345-3.3266649l-4.1483408-4.1266644v10.8749941c.2933339.1433332.5700011.3383332.8133348.5799997 1.1879307 1.2002021 1.1879307 3.1331289 0 4.333331-.5764432.5769685-1.3585842.9011503-2.1741705.9011503s-1.5977273-.3241818-2.1741706-.9011503c-.575449-.5735269-.8988949-1.35255-.8988949-2.1649988 0-.8124489.3234459-1.591472.8988949-2.1649989.3033339-.2999998.6450011-.5266663 1.0083351-.6766663v-10.9816607c-.7557196-.3089394-1.3564416-.9073645-1.6682728-1.661894-.3118311-.7545295-.3088533-1.6024498.0082699-2.3547705l-4.5200081-4.5416642-11.97668817 11.9683268c-1.00000177 1.0083328-1.00000177 2.6399986 0 3.6483314l17.46669797 17.4616572c.4829774.4834364 1.1383114.7550668 1.82167.7550668.6833585 0 1.3386926-.2716304 1.8216699-.7550668l17.3833644-17.3833239c.4843579-.4828255.7565964-1.1385971.7565964-1.822499 0-.683902-.2722385-1.3396736-.7565964-1.822499" fill="#cf1322"/></g></g></svg>

<?xml version="1.0" encoding="UTF-8"?>
<svg width="56px" height="56px" viewBox="0 0 56 56" version="1.1" xmlns="http://www.w3.org/2000/svg" xmlns:xlink="http://www.w3.org/1999/xlink">
    <title>git</title>
    <g id="页面-1" stroke="none" stroke-width="1" fill="none" fill-rule="evenodd">
        <g id="建木CI-图形编辑器入口备份-3" transform="translate(-450.000000, -104.000000)">
            <g id="git" transform="translate(450.000000, 104.000000)">
                <circle id="椭圆形备份-2" fill="#FFE8E5" cx="28" cy="28" r="28"></circle>
                <rect id="矩形" fill="#000000" fill-rule="nonzero" opacity="0" x="6" y="6" width="44" height="44"></rect>
                <path d="M47.2434036,26.2166113 L29.7783723,8.75328739 C28.7702894,7.7489042 27.1397821,7.7489042 26.1316991,8.75328739 L22.5133593,12.3782855 L27.1133676,16.9782829 C28.2205776,16.603182 29.444747,16.8909437 30.2688884,17.7200415 C31.0930299,18.5491393 31.3734442,19.7750099 30.9917079,20.8799475 L35.4217158,25.3132784 C36.7719566,24.843794 38.2674089,25.37062 39.0252395,26.5827474 C39.7830701,27.7948747 39.601778,29.3700084 38.5883882,30.3782757 C38.0140723,30.9535153 37.2345773,31.2767594 36.4217176,31.2767594 C35.6088579,31.2767594 34.829363,30.9535153 34.255047,30.3782757 C33.3839266,29.504679 33.1188821,28.195205 33.5817125,27.0516108 L29.4333717,22.9249464 L29.4333717,33.7999405 C29.7267056,33.9432737 30.0033728,34.1382737 30.2467065,34.3799402 C31.4346372,35.5801423 31.4346372,37.5130691 30.2467065,38.7132712 C29.6702633,39.2902397 28.8881223,39.6144215 28.072536,39.6144215 C27.2569497,39.6144215 26.4748087,39.2902397 25.8983654,38.7132712 C25.3229164,38.1397443 24.9994705,37.3607212 24.9994705,36.5482724 C24.9994705,35.7358235 25.3229164,34.9568004 25.8983654,34.3832735 C26.2016993,34.0832737 26.5433665,33.8566072 26.9067005,33.7066072 L26.9067005,22.7249465 C26.1509809,22.4160071 25.5502589,21.817582 25.2384277,21.0630525 C24.9265966,20.308523 24.9295744,19.4606027 25.2466976,18.708282 L20.7266895,14.1666178 L8.75000133,26.1349446 C7.74999956,27.1432774 7.74999956,28.7749432 8.75000133,29.783276 L26.2166993,47.2449332 C26.6996767,47.7283696 27.3550107,48 28.0383693,48 C28.7217278,48 29.3770619,47.7283696 29.8600392,47.2449332 L47.2434036,29.8616093 C47.7277615,29.3787838 48,28.7230122 48,28.0391103 C48,27.3552083 47.7277615,26.6994367 47.2434036,26.2166113" id="路径" fill="#CF1322" fill-rule="nonzero"></path>
            </g>
        </g>
    </g>
</svg>
